assets/images/icons/src/caret-square-o-right.svg

<?xml version="1.0" encoding="utf-8"?>
<!-- Generated by IcoMoon.io -->
<!DOCTYPE svg PUBLIC "-//W3C//DTD SVG 1.1//EN" "http://www.w3.org/Graphics/SVG/1.1/DTD/svg11.dtd">
<svg version="1.1" xmlns="http://www.w3.org/2000/svg" xmlns:xlink="http://www.w3.org/1999/xlink" width="12" height="14" viewBox="0 0 12 14">
<path fill="#444444" d="M8.5 7q0 0.258-0.211 0.406l-3.5 2.5q-0.242 0.18-0.516 0.039-0.273-0.133-0.273-0.445v-5q0-0.312 0.273-0.445 0.273-0.141 0.516 0.039l3.5 2.5q0.211 0.148 0.211 0.406zM10 10.75v-7.5q0-0.109-0.070-0.18t-0.18-0.070h-7.5q-0.109 0-0.18 0.070t-0.070 0.18v7.5q0 0.109 0.070 0.18t0.18 0.070h7.5q0.109 0 0.18-0.070t0.070-0.18zM12 3.25v7.5q0 0.93-0.66 1.59t-1.59 0.66h-7.5q-0.93 0-1.59-0.66t-0.66-1.59v-7.5q0-0.93 0.66-1.59t1.59-0.66h7.5q0.93 0 1.59 0.66t0.66 1.59z"></path>
</svg>

<svg xmlns="http://www.w3.org/2000/svg" width="12" height="14" viewBox="0 0 12 14"><path fill="#444" d="M8.5 7q0 .258-.211.406l-3.5 2.5q-.242.18-.516.039Q4 9.812 4 9.5v-5q0-.312.273-.445.273-.141.516.039l3.5 2.5Q8.5 6.742 8.5 7zm1.5 3.75v-7.5q0-.109-.07-.18T9.75 3h-7.5q-.109 0-.18.07T2 3.25v7.5q0 .109.07.18t.18.07h7.5q.109 0 .18-.07t.07-.18zm2-7.5v7.5q0 .93-.66 1.59T9.75 13h-7.5q-.93 0-1.59-.66T0 10.75v-7.5q0-.93.66-1.59T2.25 1h7.5q.93 0 1.59.66T12 3.25z"/></svg>
